X:2
P: Lady Montgomerie
C: from Elke Baker, Gow Repository
K: Bb
M: 4/4
L: 1/8
d|"Bb"B2 BF DEFD|B2 BG "F"ABcd|"Bb"B2 BF DEFD|"Cm"CccB "F"ABcd|"Bb"B2 BF DEFD|B2 BG "F"ABcA|
"Bb"BfdB FDFD|"Cm"CccB "F"ABcd||"Bb"B2 fB dB f2|B2 fB defb|B2 fB "Gm"dBfB|"Cm"edcB "F"ABcd|
"Bb"B2 fB dBfd|Bbfe defg|fdec "Gm"dBcA|[1 "Eb"BGFD "F"Cc c :| [2 "Eb"BG"F"FD "Bb"B,3 |]
